src/assets/img/icons/duotone-icons/General/Binocular.svg

<?xml version="1.0" encoding="UTF-8"?>
<svg width="24px" height="24px" viewBox="0 0 24 24" version="1.1" xmlns="http://www.w3.org/2000/svg" xmlns:xlink="http://www.w3.org/1999/xlink">
    <!-- Generator: Sketch 52.2 (67145) - http://www.bohemiancoding.com/sketch -->
    <title>Stockholm-icons / General / Binocular</title>
    <desc>Created with Sketch.</desc>
    <g id="Stockholm-icons-/-General-/-Binocular" stroke="none" stroke-width="1" fill="none" fill-rule="evenodd">
        <rect id="bound" x="0" y="0" width="24" height="24"></rect>
        <path d="M12.8434797,16 L11.1565203,16 L10.9852159,16.6393167 C10.3352654,19.064965 7.84199997,20.5044524 5.41635172,19.8545019 C2.99070348,19.2045514 1.55121603,16.711286 2.20116652,14.2856378 L3.92086709,7.86762789 C4.57081758,5.44197964 7.06408298,4.00249219 9.48973122,4.65244268 C10.5421727,4.93444352 11.4089671,5.56345262 12,6.38338695 C12.5910329,5.56345262 13.4578273,4.93444352 14.5102688,4.65244268 C16.935917,4.00249219 19.4291824,5.44197964 20.0791329,7.86762789 L21.7988335,14.2856378 C22.448784,16.711286 21.0092965,19.2045514 18.5836483,19.8545019 C16.158,20.5044524 13.6647346,19.064965 13.0147841,16.6393167 L12.8434797,16 Z M17.4563502,18.1051865 C18.9630797,18.1051865 20.1845253,16.8377967 20.1845253,15.2743923 C20.1845253,13.7109878 18.9630797,12.4435981 17.4563502,12.4435981 C15.9496207,12.4435981 14.7281751,13.7109878 14.7281751,15.2743923 C14.7281751,16.8377967 15.9496207,18.1051865 17.4563502,18.1051865 Z M6.54364977,18.1051865 C8.05037928,18.1051865 9.27182488,16.8377967 9.27182488,15.2743923 C9.27182488,13.7109878 8.05037928,12.4435981 6.54364977,12.4435981 C5.03692026,12.4435981 3.81547465,13.7109878 3.81547465,15.2743923 C3.81547465,16.8377967 5.03692026,18.1051865 6.54364977,18.1051865 Z" id="Combined-Shape" fill="#335EEA"></path>
    </g>
</svg>

<svg width="24" height="24" viewBox="0 0 24 24" xmlns="http://www.w3.org/2000/svg"><g fill="none" fill-rule="evenodd"><path d="M0 0h24v24H0z"/><path d="M12.843 16h-1.686l-.172.64a4.547 4.547 0 01-8.784-2.354l1.72-6.418A4.547 4.547 0 0112 6.383a4.547 4.547 0 018.08 1.484l1.719 6.419a4.547 4.547 0 01-8.784 2.353L12.843 16zm4.613 2.105c1.507 0 2.729-1.267 2.729-2.83 0-1.564-1.222-2.831-2.729-2.831-1.506 0-2.728 1.267-2.728 2.83 0 1.564 1.222 2.831 2.728 2.831zm-10.912 0c1.506 0 2.728-1.267 2.728-2.83 0-1.564-1.222-2.831-2.728-2.831-1.507 0-2.729 1.267-2.729 2.83 0 1.564 1.222 2.831 2.729 2.831z" fill="#335EEA"/></g></svg>
